X: 37594
T: Smith Of Chilliechassie, The
R: reel
M: 4/4
K: Amixolydian
AAAB e2Ae|d2Gd BBBG|AAAB e2Ae|eAdB AAAG|
AAAB e2Ae|edde BBBG|AAAB e2AB|g2dB AAAG||
g2fg aefd|g2fg BBBG|g2fg aefd|e2dB AAAG|
g2fg aefd|g2fg BBBG|aefd e2ge|d2dB AAAG||
AAAB ~A2e2|AAAd BBBG|AAAB ~A2e2|GGGB AAAG|
AAAB ~A2eA|dBBd BBBG|g2ea e2Ad|B2GB AAAG||
g2fg a2ag|egdg BBBG|g2fg a2af|e2dB AAAG|
g2fg a2ag|egdg BBBG|eA ~A2 e2ge|d2dB AAAG||
BBBc B2f2|BBBf BBcA|BBBc B2f2|AAAc eAcA|
BBBc B2f2|BBBf BBcA|BBBc d2de|f2ed cecA||
fBBa BBfe|fBBa BBcA|fBBa BBfe|AAAc eAcA|
fBBa BBfe|fBBa BBcA|BBBc d2de|f2ed cecA||

